public/icons/svg/arrow-circle-right.svg

<svg fill="none" height="24" viewBox="0 0 24 24" width="24" xmlns="http://www.w3.org/2000/svg"><path d="m12 2.25c-1.9284 0-3.81343.57183-5.41681 1.64317-1.60337 1.07134-2.85306 2.59409-3.59101 4.37567-.73796 1.78156-.93104 3.74196-.55483 5.63326.3762 1.8913 1.3048 3.6286 2.66836 4.9922 1.36357 1.3636 3.10085 2.2922 4.99219 2.6684 1.8913.3762 3.8517.1831 5.6333-.5549 1.7815-.7379 3.3043-1.9876 4.3756-3.591 1.0714-1.6034 1.6432-3.4884 1.6432-5.4168-.0027-2.58502-1.0308-5.06339-2.8587-6.89128-1.8279-1.82788-4.3063-2.85599-6.8913-2.85872zm0 18c-1.6317 0-3.22674-.4839-4.58345-1.3904s-2.41413-2.195-3.03855-3.7025-.7878-3.1663-.46947-4.7666c.31832-1.60034 1.10406-3.07035 2.25784-4.22413 1.15379-1.15378 2.6238-1.93952 4.22413-2.25785 1.6004-.31833 3.2592-.15495 4.7666.46947 1.5075.62443 2.796 1.68185 3.7025 3.03856.9065 1.3567 1.3904 2.95175 1.3904 4.58345-.0025 2.1873-.8725 4.2843-2.4191 5.8309s-3.6436 2.4166-5.8309 2.4191zm4.2806-8.7806c.0698.0696.1251.1523.1628.2434.0378.091.0572.1886.0572.2872s-.0194.1962-.0572.2872c-.0377.0911-.093.1738-.1628.2434l-3 3c-.1407.1408-.3316.2198-.5306.2198s-.3899-.079-.5306-.2198c-.1408-.1407-.2198-.3316-.2198-.5306s.079-.3899.2198-.5306l1.7203-1.7194h-5.6897c-.19891 0-.38967-.079-.53033-.2197-.14065-.1406-.21967-.3314-.21967-.5303s.07902-.3897.21967-.5303c.14066-.1407.33142-.2197.53033-.2197h5.6897l-1.7203-1.71937c-.1408-.14074-.2198-.33161-.2198-.53063s.079-.38989.2198-.53063c.1407-.14073.3316-.21979.5306-.21979s.3899.07906.5306.21979z" fill="#fef0ed"/></svg>

<svg width="24" height="24" viewBox="0 0 24 24" fill="none" xmlns="http://www.w3.org/2000/svg">
<path d="M12 2.25C10.0716 2.25 8.18657 2.82183 6.58319 3.89317C4.97982 4.96451 3.73013 6.48726 2.99218 8.26884C2.25422 10.0504 2.06114 12.0108 2.43735 13.9021C2.81355 15.7934 3.74215 17.5307 5.10571 18.8943C6.46928 20.2579 8.20656 21.1865 10.0979 21.5627C11.9892 21.9389 13.9496 21.7458 15.7312 21.0078C17.5127 20.2699 19.0355 19.0202 20.1068 17.4168C21.1782 15.8134 21.75 13.9284 21.75 12C21.7473 9.41498 20.7192 6.93661 18.8913 5.10872C17.0634 3.28084 14.585 2.25273 12 2.25ZM12 20.25C10.3683 20.25 8.77326 19.7661 7.41655 18.8596C6.05984 17.9531 5.00242 16.6646 4.378 15.1571C3.75358 13.6496 3.5902 11.9908 3.90853 10.3905C4.22685 8.79016 5.01259 7.32015 6.16637 6.16637C7.32016 5.01259 8.79017 4.22685 10.3905 3.90852C11.9909 3.59019 13.6497 3.75357 15.1571 4.37799C16.6646 5.00242 17.9531 6.05984 18.8596 7.41655C19.7661 8.77325 20.25 10.3683 20.25 12C20.2475 14.1873 19.3775 16.2843 17.8309 17.8309C16.2843 19.3775 14.1873 20.2475 12 20.25ZM16.2806 11.4694C16.3504 11.539 16.4057 11.6217 16.4434 11.7128C16.4812 11.8038 16.5006 11.9014 16.5006 12C16.5006 12.0986 16.4812 12.1962 16.4434 12.2872C16.4057 12.3783 16.3504 12.461 16.2806 12.5306L13.2806 15.5306C13.1399 15.6714 12.949 15.7504 12.75 15.7504C12.551 15.7504 12.3601 15.6714 12.2194 15.5306C12.0786 15.3899 11.9996 15.199 11.9996 15C11.9996 14.801 12.0786 14.6101 12.2194 14.4694L13.9397 12.75H8.25C8.05109 12.75 7.86033 12.671 7.71967 12.5303C7.57902 12.3897 7.5 12.1989 7.5 12C7.5 11.8011 7.57902 11.6103 7.71967 11.4697C7.86033 11.329 8.05109 11.25 8.25 11.25H13.9397L12.2194 9.53063C12.0786 9.38989 11.9996 9.19902 11.9996 9C11.9996 8.80098 12.0786 8.61011 12.2194 8.46937C12.3601 8.32864 12.551 8.24958 12.75 8.24958C12.949 8.24958 13.1399 8.32864 13.2806 8.46937L16.2806 11.4694Z" fill="#FEF0ED"/>
</svg>
